packages/kaspersky-hexa-ui-icons/src/iconsSVGs/32/StatusErrorOutline.svg

<svg xmlns="http://www.w3.org/2000/svg" width="32" height="32" fill="none" viewBox="0 0 32 32"><path fill="#000" fill-rule="evenodd" d="M30 16c0 7.732-6.268 14-14 14S2 23.732 2 16 8.268 2 16 2s14 6.268 14 14m-2 0c0 6.6274-5.3726 12-12 12S4 22.6274 4 16 9.3726 4 16 4s12 5.3726 12 12m-16.2071-4.2071c.3905-.3905 1.0237-.3905 1.4142 0L16 14.5858l2.7929-2.7929c.3905-.3905 1.0237-.3905 1.4142 0s.3905 1.0237 0 1.4142L17.4142 16l2.7929 2.7929c.3905.3905.3905 1.0237 0 1.4142s-1.0237.3905-1.4142 0L16 17.4142l-2.7929 2.7929c-.3905.3905-1.0237.3905-1.4142 0s-.3905-1.0237 0-1.4142L14.5858 16l-2.7929-2.7929c-.3905-.3905-.3905-1.0237 0-1.4142"/></svg>

<svg width="32" height="32" viewBox="0 0 32 32" fill="none" xmlns="http://www.w3.org/2000/svg">
<path d="M11.7929 11.7929C12.1834 11.4024 12.8166 11.4024 13.2071 11.7929L16 14.5858L18.7929 11.7929C19.1834 11.4024 19.8166 11.4024 20.2071 11.7929C20.5976 12.1834 20.5976 12.8166 20.2071 13.2071L17.4142 16L20.2071 18.7929C20.5976 19.1834 20.5976 19.8166 20.2071 20.2071C19.8166 20.5976 19.1834 20.5976 18.7929 20.2071L16 17.4142L13.2071 20.2071C12.8166 20.5976 12.1834 20.5976 11.7929 20.2071C11.4024 19.8166 11.4024 19.1834 11.7929 18.7929L14.5858 16L11.7929 13.2071C11.4024 12.8166 11.4024 12.1834 11.7929 11.7929Z" fill="black"/>
<path fill-rule="evenodd" clip-rule="evenodd" d="M16 30C23.732 30 30 23.732 30 16C30 8.26801 23.732 2 16 2C8.26801 2 2 8.26801 2 16C2 23.732 8.26801 30 16 30ZM16 28C22.6274 28 28 22.6274 28 16C28 9.37258 22.6274 4 16 4C9.37258 4 4 9.37258 4 16C4 22.6274 9.37258 28 16 28Z" fill="black"/>
</svg>
